!!!COM: Hugo Wolf
!!!CNT: Deutscher
!!!TXO: Deutsche 
!!!OTL: Mignon
!!!OPR: Gedichte von J.W. v. Goethe
!!!ONM: No. 9
!!!ODT: 1888/
!!!LYR: Goethe
!!!ENC: Brian Bice
!!!YOR: 65 Songs for voice and piano, International Music Company, 1960
!!NB: Vocal melody and text only encoded.
**kern	**silbe
*clefG2	*
*k[b-e-a-d-g-c-]	*
*M3/4	*
=5	=5
{[4b-	{Kennst
8b-]	|
4b-	du
8cc	das
=6	=6
4.b-	Land,
8d-	wo
8d-	die
8d-	Zi-
=7	=7
2d-	-tro-
4dn	nen
=8	=8
[2.a-	blu2hn,
=9	=9
4a-]}	|}
8r	.
{8a-	{im
8b-	dunk-
8a-	-len
=10	=10
[4cc	Laub
8cc]	|
8f-	die
[4dd-	Gold-
=11	=11
4.dd-]	|
8d-	-o-
8d-	-ran-
8c-	-gen
=12	=12
2.B-}	glu2hn,}
=14	=14
*k[b-e-a-]	*
4r	.
8r	.
{8b-	{ein
8b-	sanf-
8b-	-ter
=15	=15
[4b-	Wind
8b-]	|
8b-	vom
8an	blau-
8an	-en
=16	=16
8.an	Him-
16ddn	-mel
2ddn}	weht,}
=17	=17
8r	.
{8b-	{die
4.b-	Myr-
8dd-	-te
=18	=18
4.dd-	still
8a-	und
([4ff	hoch
=19	=19
8ff]	|
4een)	|
8g	der
[4f	Lor-
=20	=20
8.f]	|
16en	-beer
(4en	steht,
4cc)}	|}
=23	=23
*k[b-e-a-d-]	*
*M9/8	*
{[4.ff	{Kennst
8ff]	|
[4ee-	du
8ee-]	|
4dd-	es
=24	=24
(4dd-	wohl?
8cc)}	|}
4r	.
8r	.
4r	.
8r	.
=27	=27
{[4.cc	{Kennst
8cc]	|
[4b-	du
4b-]	|
8f	es
=28	=28
(4a-	wohl?
8g)}	|}
4r	.
8r	.
4r	.
8r	.
=32	=32
*k[b-e-a-d-g-c-]	*
8r	.
{[4ee-	{Da-
8ee-]	|
[4dd-	-hin!
8dd-]	|
8r	.
8r	.
=33	=33
8r	.
[4gg	da-
8gg]	|
[4ff-	-hin!
4ff-]}	|}
8r	.
=34	=34
8r	.
{[4aa-	{mo2cht
4aa-]	|
([8gg-	ich
8gg-]	|
8ffn)	|
8ee-	mit
=35	=35
*M3/4	*
8dd	dir,
8ccn	o
8.cc-	mein
16b-	Ge-
([4b-	-lieb-
=36	=36
4b-]	|
4.a-)	|
8dd-	-ter,
=37	=37
2dd-}	ziehn.}
4r	.
=41	=41
{[4b-	{Kennst
8b-]	|
4g-	du
8g-	das
=42	=42
[4b-	Haus?
8b-]	|
8r	.
4d-	auf
=43	=43
4.d-	Sa2u-
8d-	-len
8dn	ruht
8dn	sein
=44	=44
[2.a-	Dach,
=45	=45
4a-]}	|}
8r	.
{8a-	{es
8b-	gla2nzt
8a-	der
=46	=46
[4cc	Saal,
8cc]	|
8f-	es
[4dd-	schim-
=47	=47
4.dd-]	|
8d-	mert
8d-	das
8a-	Ge-
=48	=48
2.b-}	-mach,}
=50	=50
8r	.
{8b-	{und
8b-	Mar-
8b-	-mor-
8b-	-bil-
8b-	-der
=51	=51
4.b-	stehn
8b-	und
8an	sehn
8an	mich
=52	=52
[2ddn	an:
8ddn]}	|}
8r	.
=53	=53
4r	.
4r	.
{4dd-	{was
=54	=54
8d-	|
4b-	hat
8b--	man
[4a-	dir,
=55	=55
8a-]	|
8a-	du
4.gn	ar-
8g-	-mes
=56	=56
4.g-	Kind,
8f	ge-
[4ccn	-tan?
=57	=57
4ccn]}	|}
4r	.
4r	.
=60	=60
*k[b-e-a-d-]	*
*M9/8	*
{[4.ff	{Kennst
8ff]	|
[4ee-	du
8ee-]	|
4dd-	es
=61	=61
(4dd-	wohl?
8cc)}	|}
4r	.
8r	.
4r	.
8r	.
=64	=64
{[4.cc	{Kennst
8cc]	|
[4b-	du
4b-]	|
8f	es
=64	=64
(4a-	wohl?
8g)}	|}
4r	.
8r	.
4r	.
8r	.
=69	=69
*k[b-e-a-d-g-c-]	*
8r	.
{[4ee-	{Da-
8ee-]	|
[4dd-	-hin!
8dd-]	|
8r	.
8r	.
=70	=70
8r	.
[4gg-	Da-
8gg-]	|
[4ff-	-hin!
4ff-]}	|}
8r	.
=71	=71
8r	.
{[4aa-	{mo2cht
4aa-]	|
([8gg-	ich
8gg-]	|
8ffn)	|
8ee-	mit
=72	=72
*M3/4	*
8dd-	dir,
8ccn	o
8.cc-	mein
16b-	Be-
([4b-	-schu2-
=73	=73
4b-]	|
4.a-)	|
8d-	-tzer
=74	=74
2d-}	ziehn.}
4r	.
=79	=79
*k[f#c#g#]	*
8r	.
{4c#	{Kennst
4f#	du
8a	den
=80	=80
8cc#	Berg
8f#	und
4.f#	sei-
8f#	-nen
=81	=81
8.a	Wol-
16g#	-ken-
2g#}	-steg?}
=82	=82
8r	.
{8g#	{Das
4a#	Maul-
4g#	-tier
=83	=83
4.b	sucht
8e	im
[4cc#	Ne-
=84	=84
4.cc#]	|
8c#	-bel
8c#	sei-
8B	-nen
=85	=85
2A#}	Weg;}
4r	.
=86	=86
8.r	.
{16d#	{in
4d#	Ho2h-
4f#	-len
=87	=87
8.a#	wohnt
16d#	der
[2f#	Dra-
=88	=88
8.f#]	|
16f#	-chen
4f#	al-
4an	-te
=89	=89
4cc#}	Brut;}
8r	.
{8cc#	{es
[4cc#	stu2rzt
=90	=90
8.cc#]	|
16cc#	der
[2ee	Fels
=91	=91
8ee]	|
8dd#	und
[2cc#	u2-
=92	=92
8.cc#]	|
16cc#	-ber
4.dd	ihn
8g#	die
=93	=93
[2.ee#	Flut.
=94	=94
2.ee#]}	|}
=101	=101
*k[b-e-a-d-]	*
*M9/8	*
{[4.f	{Kennst
8f]	|
[4ee-	du
8ee-]	|
4dd-	ihn
=102	=102
(4dd-	wohl?
8cc)}	|}
4r	.
8r	.
4r	.
8r	.
=105	=105
{[4.cc	{Kennst
8cc]	|
[4b-	du
4b-]	|
8f	ihn
=106	=106
(4a-	wohl?
8g)}	|}
4r	.
8r	.
4r	.
8r	.
=110	=110
*k[b-e-a-d-g-c-]	*
8r	.
{[4ee-	{Da-
8ee-]	|
[4dd-	-hin!
8dd-]	|
8r	.
8r	.
=111	=111
8r	.
[4gg-	da-
8gg-]	|
[4ff-	-hin!
4ff-]}	|}
8r	.
=112	=112
8r	.
{[4aa-	{geht
4aa-]	|
([8gg-	un-
8gg-]	|
8ffn)	|
8ee-	-ser
=113	=113
*M3/4	*
8dd-;	Weg!
8ccn	O
4.cc-	Va-
8b-	-ter,
=114	=114
4r	.
4.a-	lass
8dd-	uns
=115	=115
2.dd-	ziehn!
=116	=116
4dd-}	|}
4r	.
4r	.
=118	=118
8r	.
{[8d-	{lass
4d-]	|
4d-	uns
=119	=119
(2b-	ziehn!
[4g-	|
=120	=120
4g-])}	|}
4r	.
4r	.
*-	*-
